public/assets/logos/software/adobe-illustrator.svg

<svg fill="none" height="10" viewBox="0 0 10 10" width="10" xmlns="http://www.w3.org/2000/svg" xmlns:xlink="http://www.w3.org/1999/xlink"><clipPath id="a"><path d="m0 .124023h10v9.752h-10z"/></clipPath><g clip-path="url(#a)"><path d="m1.77083.125031h6.45834c.97916 0 1.77083.791666 1.77083 1.770829v6.20834c0 .97916-.79167 1.77083-1.77083 1.77083h-6.45834c-.979163 0-1.77083-.79167-1.77083-1.77083v-6.20834c0-.979163.791667-1.770829 1.77083-1.770829z" fill="#300"/><path d="m4.83333 5.95835h-1.55l-.31666.97917c-.00834.0375-.04167.0625-.07917.05833h-.78333c-.04584 0-.05834-.02499-.04584-.07499l1.34167-3.86251c.0125-.04166.025-.0875.04167-.1375.01666-.0875.025-.17916.025-.27083-.00417-.02083.0125-.04167.03333-.04583h1.07917c.03333 0 .05.0125.05416.03333l1.52084 4.29167c.0125.04583 0 .06666-.04167.06666h-.87083c-.02917.00417-.05834-.01666-.06667-.04583zm-1.30833-.84583h1.05833c-.025-.0875-.05833-.19167-.09583-.3-.0375-.1125-.075-.23333-.1125-.35833-.04167-.12917-.07917-.25417-.12083-.38334-.04167-.12916-.07917-.25-.1125-.37083-.03334-.11667-.0625-.225-.09167-.325h-.00833c-.0375.17917-.08334.35833-.14167.5375-.0625.2-.125.40833-.19167.61667-.05833.2125-.12083.40833-.18333.58333zm3.55833-1.77917c-.1375.00417-.27083-.05-.37083-.14583-.09583-.10417-.14583-.24167-.14167-.38333-.00416-.14167.05-.275.15-.37084.1-.09583.23334-.14583.37084-.14583.1625 0 .2875.05.37916.14583.09167.1.14167.23334.1375.37084.00417.14166-.04583.27916-.14583.38333-.09583.1-.2375.15417-.37917.14583zm-.46666 3.61667v-3.20833c0-.04167.01666-.05834.05416-.05834h.825c.0375 0 .05417.02084.05417.05834v3.20833c0 .04583-.01667.06667-.05417.06667h-.81666c-.04167 0-.0625-.025-.0625-.06667z" fill="#ff9a00"/></g></svg>

<svg width="10" height="10" viewBox="0 0 10 10" fill="none" xmlns="http://www.w3.org/2000/svg">
<g clip-path="url(#clip0_86_598)">
<path d="M1.77083 0.125031H8.22917C9.20833 0.125031 10 0.916697 10 1.89586V8.1042C10 9.08336 9.20833 9.87503 8.22917 9.87503H1.77083C0.791667 9.87503 0 9.08336 0 8.1042V1.89586C0 0.916697 0.791667 0.125031 1.77083 0.125031Z" fill="#330000"/>
<path d="M4.83333 5.95835H3.28333L2.96667 6.93752C2.95833 6.97502 2.925 7.00002 2.8875 6.99585H2.10417C2.05833 6.99585 2.04583 6.97086 2.05833 6.92086L3.4 3.05835C3.4125 3.01669 3.425 2.97085 3.44167 2.92085C3.45833 2.83335 3.46667 2.74169 3.46667 2.65002C3.4625 2.62919 3.47917 2.60835 3.5 2.60419H4.57917C4.6125 2.60419 4.62917 2.61669 4.63333 2.63752L6.15417 6.92919C6.16667 6.97502 6.15417 6.99585 6.1125 6.99585H5.24167C5.2125 7.00002 5.18333 6.97919 5.175 6.95002L4.83333 5.95835ZM3.525 5.11252H4.58333C4.55833 5.02502 4.525 4.92085 4.4875 4.81252C4.45 4.70002 4.4125 4.57919 4.375 4.45419C4.33333 4.32502 4.29583 4.20002 4.25417 4.07085C4.2125 3.94169 4.175 3.82085 4.14167 3.70002C4.10833 3.58335 4.07917 3.47502 4.05 3.37502H4.04167C4.00417 3.55419 3.95833 3.73335 3.9 3.91252C3.8375 4.11252 3.775 4.32085 3.70833 4.52919C3.65 4.74169 3.5875 4.93752 3.525 5.11252ZM7.08333 3.33335C6.94583 3.33752 6.8125 3.28335 6.7125 3.18752C6.61667 3.08335 6.56667 2.94585 6.57083 2.80419C6.56667 2.66252 6.62083 2.52919 6.72083 2.43335C6.82083 2.33752 6.95417 2.28752 7.09167 2.28752C7.25417 2.28752 7.37917 2.33752 7.47083 2.43335C7.5625 2.53335 7.6125 2.66669 7.60833 2.80419C7.6125 2.94585 7.5625 3.08335 7.4625 3.18752C7.36667 3.28752 7.225 3.34169 7.08333 3.33335ZM6.61667 6.95002V3.74169C6.61667 3.70002 6.63333 3.68335 6.67083 3.68335H7.49583C7.53333 3.68335 7.55 3.70419 7.55 3.74169V6.95002C7.55 6.99585 7.53333 7.01669 7.49583 7.01669H6.67917C6.6375 7.01669 6.61667 6.99169 6.61667 6.95002Z" fill="#FF9A00"/>
</g>
<defs>
<clipPath id="clip0_86_598">
<rect width="10" height="9.752" fill="white" transform="translate(0 0.124023)"/>
</clipPath>
</defs>
</svg>
